public/assets/imgs/page/homepage5/office.svg

<svg width="27" height="21" viewBox="0 0 27 21" fill="none" xmlns="http://www.w3.org/2000/svg">
<g clip-path="url(#clip0_2_742)">
<path d="M20.3241 8.92924C17.1689 8.92924 14.6156 11.456 14.6156 14.5783C14.6156 17.7006 17.1689 20.2274 20.3241 20.2274C23.4793 20.2274 26.0326 17.7006 26.0326 14.5783C26.0326 11.456 23.4793 8.92924 20.3241 8.92924ZM22.8612 14.8251C22.8612 15.0346 22.688 15.206 22.4763 15.206H20.0751C19.8635 15.206 19.6902 15.0346 19.6902 14.8251V11.8212C19.6902 11.6118 19.8635 11.4403 20.0751 11.4403H20.5735C20.7851 11.4403 20.9584 11.6118 20.9584 11.8212V13.9506H22.4763C22.688 13.9506 22.8612 14.1221 22.8612 14.3316V14.8251ZM20.3241 7.67389C20.5382 7.67389 20.7491 7.68683 20.9584 7.70566V5.79086C20.9584 4.78658 20.0704 3.90784 19.0555 3.90784H15.8841V2.02481C15.8841 1.02053 14.9961 0.141785 13.9813 0.141785H7.63846C6.62361 0.141785 5.73561 1.02053 5.73561 2.02481V3.90784H2.5642C1.54935 3.90784 0.661354 4.78658 0.661354 5.79086V8.92924H16.325C17.4587 8.14111 18.8363 7.67389 20.3241 7.67389ZM13.347 3.90784H8.27274V2.65249H13.347V3.90784ZM13.6174 12.6953H8.90702C8.55658 12.6953 8.27274 12.4144 8.27274 12.0676V10.1846H0.661354V15.8337C0.661354 16.8379 1.54935 17.7167 2.5642 17.7167H14.1173C13.6285 16.7736 13.347 15.7089 13.347 14.5783C13.347 13.9247 13.4453 13.2947 13.6174 12.6953Z" fill="#006D77"/>
</g>
<defs>
<clipPath id="clip0_2_742">
<rect width="25.3713" height="20.0856" fill="white" transform="translate(0.661114 0.141815)"/>
</clipPath>
</defs>
</svg>

<svg width="27" height="21" fill="none" xmlns="http://www.w3.org/2000/svg"><g clip-path="url(#a)"><path d="M20.324 8.93c-3.155 0-5.708 2.526-5.708 5.648 0 3.123 2.553 5.65 5.708 5.65 3.155 0 5.709-2.527 5.709-5.65 0-3.122-2.554-5.649-5.709-5.649Zm2.537 5.895c0 .21-.173.381-.385.381h-2.4a.384.384 0 0 1-.386-.38V11.82c0-.21.173-.38.385-.38h.498c.212 0 .385.17.385.38v2.13h1.518c.212 0 .385.171.385.38v.494Zm-2.537-7.151c.214 0 .425.013.634.032V5.79c0-1.004-.888-1.883-1.902-1.883h-3.172V2.025c0-1.004-.888-1.883-1.903-1.883H7.638c-1.014 0-1.902.879-1.902 1.883v1.883H2.564C1.55 3.908.661 4.787.661 5.79v3.138h15.664a6.984 6.984 0 0 1 4-1.255Zm-6.977-3.766H8.273V2.652h5.074v1.256Zm.27 8.787h-4.71a.63.63 0 0 1-.634-.627v-1.883H.66v5.649c0 1.004.888 1.883 1.903 1.883h11.553a6.798 6.798 0 0 1-.77-3.139c0-.653.098-1.283.27-1.883Z" fill="#006D77"/></g><defs><clipPath id="a"><path fill="#fff" transform="translate(.661 .142)" d="M0 0h25.371v20.086H0z"/></clipPath></defs></svg>
